X: 11725
T: El To Arume
R: waltz
M: 3/4
K: Eminor
|:dc|E3 D (E/F/G)|GA D2 dc|E3 D (E/F/G)|
F3 D dc|E3 D (E/F/G)|GA D2 GA|B3 d cA|D4:|
|:GF|G3 A GF|G4 FG|A>B cB AG|A4 GF|
G3 A GF|G4 FG|A>B cB AG|A4:|
|:GF|E3 B e2|[M:4/4] e4 GF E2|[M:3/4] D3 E FG|E4 GF|
E3 B e2|e4 GF|E2 DE FG|D4:|

